svg/empty_bottle5.svg

<ns0:svg xmlns:ns0="http://www.w3.org/2000/svg" width="100%" height="100%" viewBox="0 -1000 4004 5152" version="1.1" xml:space="preserve" style="fill:#b20dff;fill-rule:evenodd;clip-rule:evenodd;stroke-linejoin:round;stroke-miterlimit:2;"><ns0:clipPath id="_clip1"><ns0:rect x="2.823" y="0.001" width="4000" height="3125" /></ns0:clipPath><ns0:g clip-path="url(#_clip1)"><ns0:g><ns0:path d="M1307.97,862.12c-322.641,245.767 -661.126,644.578 -661.126,1092.48c-0,749.323 606.659,1296.26 1355.98,1296.26c749.323,-0 1355.98,-546.935 1355.98,-1296.26c0,-447.952 -338.556,-846.799 -661.179,-1092.52c4.104,-1.933 8.326,-3.921 12.666,-5.958c130.429,-61.238 220.727,-193.759 220.727,-347.371l-0,-63.845c-0,-211.84 -171.73,-383.57 -383.57,-383.57l-68.18,0l49.662,-332.179c2.498,-9.848 1.798,-21.48 -4.124,-35.092c-2.575,-5.921 -7.607,-23.19 -40.939,-38.371c-30.107,-13.711 -132.323,-39.954 -481.044,-39.954c-348.72,-0 -450.937,26.243 -481.043,39.954c-33.332,15.181 -38.364,32.45 -40.94,38.371c-6.772,15.568 -5.11,25.179 -5.034,26.874c0.161,3.59 0.562,6.949 1.189,10.081l49.384,330.316l-68.18,0c-211.84,0 -383.57,171.73 -383.57,383.57l-0,63.845c-0,153.596 90.279,286.105 220.661,347.34c4.301,2.02 8.522,4.033 12.676,6.03Zm1146.47,-31.544c143.414,-7.818 263.792,-102.794 309.013,-232.794c9.939,-24.084 15.967,-50.196 17.29,-77.543c1.259,-12.014 1.903,-24.193 1.903,-36.521c-0,-9.575 0.154,-32.302 -2.393,-57.894c-0.623,-7.709 -1.621,-15.312 -2.972,-22.777c-3.409,-20.66 -8.978,-41.25 -18.079,-56.847c-37.209,-79.671 -118.034,-134.865 -211.75,-134.865l-88.559,0l10.184,47.675c-316.625,67.632 -627.633,68.288 -932.842,-0.075l10.662,-47.6l-88.694,0c-93.717,0 -174.542,55.194 -211.75,134.865c-9.1,15.596 -14.671,36.186 -18.079,56.848c-1.353,7.471 -2.35,15.07 -2.972,22.775c-2.547,25.593 -2.393,48.32 -2.393,57.895c0,12.328 0.644,24.507 1.902,36.52c1.326,27.344 7.353,53.452 17.291,77.544c45.248,130.023 165.615,224.98 309.012,232.794l13.144,0l14.517,22.398l-61.189,39.658c-319.787,207.264 -725.009,602.44 -725.009,1061.97c0,666.965 543.184,1150.42 1210.15,1150.42c666.964,-0 1210.15,-483.46 1210.15,-1150.42c-0,-459.531 -405.222,-854.707 -725.009,-1061.97l-61.189,-39.658l14.517,-22.398l13.146,0Zm-115.562,-619.208l3.461,-23.15l64.554,-431.78c-51.666,-8.543 -176.882,-24.032 -404.066,-24.032c-227.183,-0 -352.399,15.489 -404.064,24.032l68.135,455.739c220.924,36.347 444.942,35.764 671.98,-0.809Z" /></ns0:g></ns0:g></ns0:svg>

<?xml version="1.0" encoding="UTF-8" standalone="no"?>
<!DOCTYPE svg PUBLIC "-//W3C//DTD SVG 1.1//EN" "http://www.w3.org/Graphics/SVG/1.1/DTD/svg11.dtd">
<svg width="100%" height="100%" viewBox="0 0 4004 6152" version="1.1" xmlns="http://www.w3.org/2000/svg" xmlns:xlink="http://www.w3.org/1999/xlink" xml:space="preserve" xmlns:serif="http://www.serif.com/" style="fill-rule:evenodd;clip-rule:evenodd;stroke-linejoin:round;stroke-miterlimit:2;">
    <g transform="matrix(1,0,0,1,0,1500)">
        <g>
            <path d="M1307.97,862.12C985.329,1107.89 646.844,1506.7 646.844,1954.6C646.844,2703.92 1253.5,3250.86 2002.82,3250.86C2752.15,3250.86 3358.8,2703.93 3358.8,1954.6C3358.8,1506.65 3020.25,1107.8 2697.62,862.08C2701.73,860.147 2705.95,858.159 2710.29,856.122C2840.72,794.884 2931.02,662.363 2931.02,508.751L2931.02,444.906C2931.02,233.066 2759.29,61.336 2547.45,61.336L2479.27,61.336L2528.93,-270.843C2531.43,-280.691 2530.73,-292.323 2524.81,-305.935C2522.23,-311.856 2517.2,-329.125 2483.87,-344.306C2453.76,-358.017 2351.54,-384.26 2002.82,-384.26C1654.1,-384.26 1551.89,-358.017 1521.78,-344.306C1488.45,-329.125 1483.42,-311.856 1480.84,-305.935C1474.07,-290.367 1475.73,-280.756 1475.81,-279.061C1475.97,-275.471 1476.37,-272.112 1477,-268.98L1526.38,61.336L1458.2,61.336C1246.36,61.336 1074.63,233.066 1074.63,444.906L1074.63,508.751C1074.63,662.347 1164.91,794.856 1295.29,856.091C1299.59,858.111 1303.81,860.124 1307.97,862.121L1307.97,862.12ZM2454.44,830.576C2597.85,822.758 2718.23,727.782 2763.45,597.782C2773.39,573.698 2779.42,547.586 2780.74,520.239C2782,508.225 2782.65,496.046 2782.65,483.718C2782.65,474.143 2782.8,451.416 2780.25,425.824C2779.63,418.115 2778.63,410.512 2777.28,403.047C2773.87,382.387 2768.3,361.797 2759.2,346.2C2721.99,266.529 2641.17,211.335 2547.45,211.335L2458.89,211.335L2469.08,259.01C2152.45,326.642 1841.44,327.298 1536.24,258.935L1546.9,211.335L1458.2,211.335C1364.49,211.335 1283.66,266.529 1246.45,346.2C1237.35,361.796 1231.78,382.386 1228.37,403.048C1227.02,410.519 1226.02,418.118 1225.4,425.823C1222.86,451.416 1223.01,474.143 1223.01,483.718C1223.01,496.046 1223.65,508.225 1224.91,520.238C1226.24,547.582 1232.26,573.69 1242.2,597.782C1287.45,727.805 1407.82,822.762 1551.21,830.576L1564.36,830.576L1578.88,852.974L1517.69,892.632C1197.9,1099.9 792.677,1495.07 792.677,1954.6C792.677,2621.57 1335.86,3105.02 2002.83,3105.02C2669.79,3105.02 3212.98,2621.56 3212.98,1954.6C3212.98,1495.07 2807.76,1099.89 2487.97,892.632L2426.78,852.974L2441.3,830.576L2454.44,830.576L2454.44,830.576ZM2338.88,211.368L2342.34,188.218L2406.89,-243.562C2355.23,-252.105 2230.01,-267.594 2002.83,-267.594C1775.64,-267.594 1650.43,-252.105 1598.76,-243.562L1666.9,212.177C1887.82,248.524 2111.84,247.941 2338.88,211.368Z" style="fill:rgb(178,13,255);"/>
        </g>
    </g>
</svg>
